X: 184
T:The Irish Washerwoman (4 part setting)
R:jig
Z:Madison
M:6/8
L:1/8
Q:80
K:G
d2c|BGG DGG|BGB dcB|cAA FAA|cAc edc|BGG DGG|BGB dcB|cBc Adc|BGG G2:|
g|gdg gdg|gdg bag|fdf fdf|fdf agf|egg dgg|cgg Bgg|cAc Adc|BGG G2:|
K:D
A |faf dcd|Adf agf|gfg ece|Ace gfe|faf dcd|Adf agf|g3/2f/2g e/2a3/2g|fdd
 d2:|
e |f2 f a3/2g/2f|A3/2d/2f a3/2g/2f|
e2 e g3/2f/2e|A3/2c/2e g3/2f/2e|f2 f  a3/2g/2f|A3/2d/2f a3/2g/2f|
g3/2f/2g e3/2a/2g|fdd d2 e|f2  f  a3/2g/2f|A3/2d/2f a3/2g/2f|e2 e g3/2f/
2e|
A3/2c/2e g3/2f/2e|f/2a3/2f d3/2c/2d|
A3/2d/2f a3/2g/2f|g3/2f/2g e3/2a/2g|fdd d3|
